!!!COM: Ce/cile Chaminade
!!!CNT: Francais
!!!TXO: Francais
!!!OTL: "Re^ve d'un soir"
!!!LYR: Adenis, Euge\ne
!!!ENC: Amanda Harris
!!!YOR: Album of Songs, Volume 1
!!!YOR: Da Capo Press
!!!ODT: 1890/
!!NB: Vocal melody and text encoded
**kern	**silbe
*clefG2	*
*k[f#c#]	*
*M4/4	*
*MM[Lento]	*
=3	=3
2r	.
8r	.
{8d	{Re^-
8f#	-ve
8a	d'un
=4	=4
[2a	soir,
8a]	|
8A	re^-
8d	-ve
8f#	d'une
=5	=5
4e#	heu-
4f#}	-re,}
8r	.
{8d	{Tu
8f#	t'es
8g	en-
=6	=6
4cc#	-fui
8b	|
8f#	sur
8a	l'ai-
8a	-le
8g	du
8B	de/-
=7	=7
4f#	-sir,
4.e}	|}
8r	.
4r	.
=8	=8
{8e	{Ta
8f#	fe/-
8g	-li-
8a	-ci-
4b	-te/
8g	n'est
8e	qu'un
=9	=9
4dd	leur-
4.cc#}	-re,}
{8e	{Re^-
8e	-ve
8cc#	d'un
=10	=10
4cc#	soir,
4.b#	|
8d#	re^-
8d#	-ve
8b#	d'une
=11	=11
4ccn	heu-
4.bn}	-re}
{8b	{Que
8b	vain-
8b	-ne-
=12	=12
8b	-ment
8B	je
4.B	cher-
8c	-che a\
8d	res-
8e	-sai-
=13	=13
4.d}	-sir.}
8r	.
2r	.
=14	=14
{8f#	{Ton
8g#	en-
8a	-chan-
8b	-te-
4a	-ment
8g#	nous
8f#	ef-
=15	=15
4a	-fleu-
4.g#	-re,
8g#	Tu
8a	dis-
8b	-pa-
=16	=16
4cc#	-rais
8b#	dans
8g#	les
4bn	feux
8a	du
8e#	ma-
=17	=17
4g#	-tin,
4f#}	|}
2r	.
=18	=18
{8a	{No-
8b	-tre
8cc#	voix
8dd	t'ap-
4cc#	-pelle
8b	et
8a	te
=19	=19
4cc#	pleu-
4.b	-re
8b	Re^-
8cc#	-ve
8a	d'un
=20	=20
4cc#	soir,
4.b	|
8b	re^-
8cc#	-ve
8g#	d'une
=21	=21
4b	heu-
4.a}	-re,}
{8e	{O
8e	doux
8e	mi-
=22	=22
4g	-rage
8f#	e-
8e	-niv-
4g	-rant
8f#	et
8e	loin-
=23	=23
4b	-tain!
4c#}	|}
8r	.
{8d	{Puis-
8f#	-qu'i-
8a	-ci-
=24	=24
[2a	-bas
8a]	|
8A	rien
8d	ne
8f#	de-
=25	=25
4e#	-meu-
4f#}	-re,}
8r	.
{8d	{Passe,
8f#	e/-
8a	-teins-
=26	=26
4cc#	-toi
8b	comme
8f#	un
8a	ray-
4g	-on
8B	d'e/-
=27	=27
4f#	-te/.
4.e}	|}
8r	.
4r	.
=28	=28
8r	.
{8f#	{Mais
8g	comme
8a	un
8b	lys
8b	a-
8g	-vant
8e	qu'il
=29	=29
4dd	meu-
4.cc#}	-re,}
{8e	{Re^-
8e	-ve
8cc#	d'un
=30	=30
4cc#	soir,
4.b#	|
8d#	re^-
8d#	-ve
8b#	d'une
=31	=31
4ccn	heu-
4.bn}	-re,}
{8b	{Ah!
8b	lais-
8b	-se-
=32	=32
4b	-nous
8b#	ton
8b#	par-
8cc#	-fum
4ee	en-
8dd	-chan-
=33	=33
4.dd}	-te/!}
8r	.
2r	.
*-	*-
